assets/icons/security.svg

<svg xmlns="http://www.w3.org/2000/svg" height="511pt" version="1.1" viewBox="-38 0 511 511.99956" width="511pt">
    <g id="surface1">
        <path d="M 413.476562 341.910156 C 399.714844 379.207031 378.902344 411.636719 351.609375 438.289062 C 320.542969 468.625 279.863281 492.730469 230.699219 509.925781 C 229.085938 510.488281 227.402344 510.949219 225.710938 511.289062 C 223.476562 511.730469 221.203125 511.96875 218.949219 512 L 218.507812 512 C 216.105469 512 213.691406 511.757812 211.296875 511.289062 C 209.605469 510.949219 207.945312 510.488281 206.339844 509.9375 C 157.117188 492.769531 116.386719 468.675781 85.289062 438.339844 C 57.984375 411.6875 37.175781 379.277344 23.433594 341.980469 C -1.554688 274.167969 -0.132812 199.464844 1.011719 139.433594 L 1.03125 138.511719 C 1.261719 133.554688 1.410156 128.347656 1.492188 122.597656 C 1.910156 94.367188 24.355469 71.011719 52.589844 69.4375 C 111.457031 66.152344 156.996094 46.953125 195.90625 9.027344 L 196.246094 8.714844 C 202.707031 2.789062 210.847656 -0.117188 218.949219 0.00390625 C 226.761719 0.105469 234.542969 3.007812 240.773438 8.714844 L 241.105469 9.027344 C 280.023438 46.953125 325.5625 66.152344 384.429688 69.4375 C 412.664062 71.011719 435.109375 94.367188 435.527344 122.597656 C 435.609375 128.386719 435.757812 133.585938 435.988281 138.511719 L 436 138.902344 C 437.140625 199.046875 438.554688 273.898438 413.476562 341.910156 Z M 413.476562 341.910156 "
              style=" stroke:none;fill-rule:nonzero;fill:rgb(0%,86.666667%,50.196078%);fill-opacity:1;"/>
        <path d="M 413.476562 341.910156 C 399.714844 379.207031 378.902344 411.636719 351.609375 438.289062 C 320.542969 468.625 279.863281 492.730469 230.699219 509.925781 C 229.085938 510.488281 227.402344 510.949219 225.710938 511.289062 C 223.476562 511.730469 221.203125 511.96875 218.949219 512 L 218.949219 0.00390625 C 226.761719 0.105469 234.542969 3.007812 240.773438 8.714844 L 241.105469 9.027344 C 280.023438 46.953125 325.5625 66.152344 384.429688 69.4375 C 412.664062 71.011719 435.109375 94.367188 435.527344 122.597656 C 435.609375 128.386719 435.757812 133.585938 435.988281 138.511719 L 436 138.902344 C 437.140625 199.046875 438.554688 273.898438 413.476562 341.910156 Z M 413.476562 341.910156 "
              style=" stroke:none;fill-rule:nonzero;fill:rgb(0%,66.666667%,38.823529%);fill-opacity:1;"/>
        <path d="M 346.101562 256 C 346.101562 326.207031 289.097656 383.355469 218.949219 383.605469 L 218.5 383.605469 C 148.144531 383.605469 90.894531 326.359375 90.894531 256 C 90.894531 185.644531 148.144531 128.398438 218.5 128.398438 L 218.949219 128.398438 C 289.097656 128.648438 346.101562 185.796875 346.101562 256 Z M 346.101562 256 "
              style=" stroke:none;fill-rule:nonzero;fill:rgb(100%,100%,100%);fill-opacity:1;"/>
        <path d="M 346.101562 256 C 346.101562 326.207031 289.097656 383.355469 218.949219 383.605469 L 218.949219 128.398438 C 289.097656 128.648438 346.101562 185.796875 346.101562 256 Z M 346.101562 256 "
              style=" stroke:none;fill-rule:nonzero;fill:rgb(88.235294%,92.156863%,94.117647%);fill-opacity:1;"/>
        <path d="M 276.417969 237.625 L 218.949219 295.101562 L 206.53125 307.519531 C 203.597656 310.453125 199.75 311.917969 195.90625 311.917969 C 192.058594 311.917969 188.214844 310.453125 185.277344 307.519531 L 158.578125 280.808594 C 152.710938 274.941406 152.710938 265.4375 158.578125 259.566406 C 164.4375 253.699219 173.953125 253.699219 179.820312 259.566406 L 195.90625 275.652344 L 255.175781 216.382812 C 261.042969 210.511719 270.558594 210.511719 276.417969 216.382812 C 282.285156 222.25 282.285156 231.765625 276.417969 237.625 Z M 276.417969 237.625 "
              style=" stroke:none;fill-rule:nonzero;fill:rgb(70.588235%,82.352941%,84.313725%);fill-opacity:1;"/>
        <path d="M 276.417969 237.625 L 218.949219 295.101562 L 218.949219 252.605469 L 255.175781 216.382812 C 261.042969 210.511719 270.558594 210.511719 276.417969 216.382812 C 282.285156 222.25 282.285156 231.765625 276.417969 237.625 Z M 276.417969 237.625 "
              style=" stroke:none;fill-rule:nonzero;fill:rgb(43.529412%,64.705882%,66.666667%);fill-opacity:1;"/>
    </g>
</svg>

<svg xmlns="http://www.w3.org/2000/svg" width="511pt" height="511pt" viewBox="-38 0 511 512"><path d="M413.477 341.91c-13.762 37.297-34.575 69.727-61.868 96.38-31.066 30.335-71.746 54.44-120.91 71.636a38 38 0 0 1-4.988 1.363c-2.234.441-4.508.68-6.762.711h-.441c-2.403 0-4.817-.242-7.211-.71-1.692-.34-3.352-.802-4.957-1.353-49.223-17.167-89.953-41.261-121.05-71.597-27.306-26.652-48.114-59.063-61.856-96.36C-1.555 274.168-.133 199.465 1.012 139.434l.02-.922c.23-4.957.378-10.164.46-15.914.418-28.23 22.863-51.586 51.098-53.16 58.867-3.286 104.406-22.485 143.316-60.41l.34-.313c6.461-5.926 14.602-8.832 22.703-8.711 7.813.101 15.594 3.004 21.824 8.71l.332.313c38.918 37.926 84.458 57.125 143.325 60.41 28.234 1.575 50.68 24.93 51.097 53.16.082 5.79.23 10.989.461 15.915l.012.39c1.14 60.145 2.555 134.996-22.523 203.008m0 0" style="stroke:none;fill-rule:nonzero;fill:#00dd80;fill-opacity:1"/><path d="M413.477 341.91c-13.762 37.297-34.575 69.727-61.868 96.38-31.066 30.335-71.746 54.44-120.91 71.636a38 38 0 0 1-4.988 1.363c-2.234.441-4.508.68-6.762.711V.004c7.813.101 15.594 3.004 21.824 8.71l.332.313c38.918 37.926 84.458 57.125 143.325 60.41 28.234 1.575 50.68 24.93 51.097 53.16.082 5.79.23 10.989.461 15.915l.012.39c1.14 60.145 2.555 134.996-22.523 203.008m0 0" style="stroke:none;fill-rule:nonzero;fill:#00aa63;fill-opacity:1"/><path d="M346.102 256c0 70.207-57.004 127.355-127.153 127.605h-.449c-70.355 0-127.605-57.246-127.605-127.605 0-70.355 57.25-127.602 127.605-127.602h.45c70.148.25 127.152 57.399 127.152 127.602m0 0" style="stroke:none;fill-rule:nonzero;fill:#fff;fill-opacity:1"/><path d="M346.102 256c0 70.207-57.004 127.355-127.153 127.605V128.398c70.149.25 127.153 57.399 127.153 127.602m0 0" style="stroke:none;fill-rule:nonzero;fill:#e1ebf0;fill-opacity:1"/><path d="m276.418 237.625-57.469 57.477-12.418 12.418a14.98 14.98 0 0 1-10.625 4.398 15 15 0 0 1-10.629-4.398l-26.699-26.711c-5.867-5.868-5.867-15.372 0-21.243 5.86-5.867 15.375-5.867 21.242 0l16.086 16.086 59.27-59.27c5.867-5.87 15.383-5.87 21.242 0 5.867 5.868 5.867 15.384 0 21.243m0 0" style="stroke:none;fill-rule:nonzero;fill:#b4d2d7;fill-opacity:1"/><path d="m276.418 237.625-57.469 57.477v-42.497l36.227-36.222c5.867-5.871 15.383-5.871 21.242 0 5.867 5.867 5.867 15.383 0 21.242m0 0" style="stroke:none;fill-rule:nonzero;fill:#6fa5aa;fill-opacity:1"/></svg>
